X:1
T:Prelude and Fugue in Eb Major. "St.Anne".
C:J.C.Bach.
%%score { ( 1 2 3 7 ) | ( 4 5 8 ) | 6 } 9 10
L:1/8
Q:1/4=90
M:2/2
K:Eb
V:1 treble nm="Pipe Organ"
V:2 treble 
V:3 treble 
V:7 treble 
V:4 bass 
V:5 bass 
V:8 bass 
V:6 bass-8 
V:9 bass-8 nm="Pipe Organ"
V:10 bass-8 nm="Pipe Organ"
V:1
!fff!"^J.S.Bach\nPrelude and Fugue in Eb Major (St.Anne)\n                       BWV 552" PB2- B/A/G/F/ !breath!E3 e | %1
 (e4 d4) | f>ed>c !breath!B3 A | (A4 G4) | (Pg>a)(g>f) (g>e)(Pd>c) | (Pf>g)(f>e) (f>d)(Pc>B) | %6
 (e>f)(e>d) e4- | e>fe>d e4- | e>fe>d e4- | e>fe>d e4- | e>ed>c d4- | d4 c4- | c>cd>e f4- | %13
 f4 e4- | e4 z z/ c<de/ | z z/ d<eg/[Q:1/4=85] f>e[Q:1/4=80]d>e | d4 z2 z f | f8- | f4 z2 z d | %19
 (d4 c4-) | c4 B4- | B8- | B3 z/ B/ PA3 z/ G/ | G4 F3 z/ G/ | (A>BA>G) (A>fB>A) | %25
 (G>AG>F) (G>eG>F) | (E>FE>D) (E>cF>E) | (D>ED>C) D>(B,D>F) | (B>cB>A) B>(EG>B) | %29
 e2- e/[Q:1/4=120]d/c/B/[Q:1/4=90] A>fB>A | %30
[Q:1/4=85] G>A[Q:1/4=80]B>E[Q:1/4=75] G>F[Q:1/4=70]PE>D | (D4 E2-) E/[Q:1/4=90](G/F/E/) | %32
 .B2 .c2 .PA2 .G2 | z4 z2"^piano"!p! (A/G/F/E/) | .B2 .c2 .PA2 .G2 | z4 z2"^forte"!f! (e/d/c/B/) | %36
 .f2 .g2 .Pe2 .d2 | z4 z2"^piano"!p! (e/d/c/B/) | .f2 .g2 .Pe2 .d2 | z4 z2!f! z"^forte" d- | %40
 d =B2 c- c/e/f/g/ f/e/d/c/- | c =A2 B- B/d/e/f/ e/d/c/B/- | B G2 =A- A/B/c/d/ c/B/A/G/- | %43
 G =E2 F- F e2 _d- | d/B/=A/B/{/B} f2- f=e/f/ _g/f/=e/f/ | B=A- A/B/c/A/ F e2 _d- | %46
 d/B/=A/B/{/B} f2- f=e/f/ _g/f/=e/f/ | B=A- A/B/c/A/ F e2 _d- | dc/B/cG (B2[Q:1/4=75] M=A>)B | %49
!fff![Q:1/4=90] B8-[Q:1/4=85][Q:1/4=80][Q:1/4=75] | B4 z4[Q:1/4=90] | g>fe>d c3 z/!fff! c'/ | %52
 (b4 =a4) | b=a/g/f/e/d/c/ B=A/G/F/E/D/C/ | x2 z2 z2 f2 | (f2 e2) z/ e/d/c/B/A/G/F/ | E2 z2 z2 b2 | %57
 (b2 a2) z2 e2- | e3 z/ e/ d4- | d3 z/ d/ c4- | c4- c>=B=A>G | c4- c>ed>c | d4- d>c=B>=A | %63
 B4- B>Bc>d | G4- G>GF>G | =A4- A>AG>A | =B4- B>cd>e | c4- c>cd>e | d4- d>=B c2- | %69
[Q:1/4=88] c4[Q:1/4=86][Q:1/4=84] =B4[Q:1/4=82] | c[Q:1/4=95] z z2 z4 | %71
 =B,/D/B,/D/ C/E/C/E/ C/F/C/F/ B,/G/B,/G/ | z g2 g- g/f/e/d/ c/B/=A/G/ | %73
 ^F/=A/F/A/ G/B/G/B/ G/c/G/c/ F/d/F/d/ | B/=A/G/^F/ G/B/G/B/ e4- | e/B/=A/G/ A/c/A/c/ f4- | %76
 f/_a/g/f/ g/f/e/d/ e/f/e/d/ e/d/c/B/ | c2 d2 e2 f2- | f2 e2 d2 gd | e4- eecf | d6 _d2 | %81
 c4- c/c/B/A/ B/A/G/F/ | E/G/F/E/ c2- c/e/d/c/ fA | z e2 e- e/d/c/B/ A/G/F/E/ | B4 c2 B2- | %85
 B2 z2 z4 | z8 | z b2 b- b/a/g/f/ e/d/c/B/ | =A/c/A/c/ B/d/B/d/ B/e/B/e/ A/f/A/f/ | %89
 d/c/B/=A/ B/d/c/B/ g/_a/g/f/ g/f/e/d/ | c/d/c/B/ c/e/d/c/ =a/b/a/g/ ^f/=e/d/c/ | %91
 B/d/B/d/ c/e/c/e/ d2 e2 | d4 e2 d2- | d4- d/f/e/d/ e/g/e/g/ | a4- a4 | g4- g4 | f4- f4 | %97
 =e4[Q:1/4=70] z2 z[Q:1/4=90] g | g4 f4- | f4 e4- | e8- | e3 z/ e/ _d3 z/ c/ | c4 B3 z/ e/ | %103
"^t" !trill(!Te8- | e8- | e4- e>=de>f | B8- | B3 z/ B/ A3 z/ c/ | %108
 z z/ f<g[Q:1/4=120]a/[Q:1/4=90] b4- | b2[Q:1/4=85] a2[Q:1/4=80] f2[Q:1/4=75] z z/ e/ | %110
[Q:1/4=70] _d4 c2- c/[Q:1/4=90](c/B/A/) | .e2 .f2 .P_d2 .c2 | z4 z2"^piano"!p! (_d/c/B/A/) | %113
 .e2 .f2 .P_d2 .c2 | z8 | z2 .e2 .=d2 .e2 | z8 | z2 .e2 .d2 .e2 | %118
 z4[Q:1/4=60] z2"^forte"[Q:1/4=90]!f! z g- | g =e2 f- f/a/b/c'/ b/a/g/f/- | %120
 f d2 e- e/g/a/b/ a/g/f/e/- | e c2 d- d/e/f/g/ f/e/d/c/- | c =A2 B- B a2 _g- | %123
 g/e/d/e/{/e} b2- b=a/b/ _c'/b/=a/b/ | ed- d/e/f/d/ B a2 _g- | %125
 g/e/d/e/{/e} b2- b=a/b/ _c'/b/=a/b/ | ed- d/e/f/d/ B a2 _g- | %127
[Q:1/4=85] gf/e/[Q:1/4=80]fc[Q:1/4=75] (e2[Q:1/4=70] Pd>)e |!ff![Q:1/4=80] e8- | %129
 e2[Q:1/4=90] z2 z4 | z8 | z8 | z8 | z8 | z8 | z e2 e- e/d/c/B/ A/G/F/E/ | %136
 D/F/D/F/ E/G/E/G/ E/A/E/A/ D/A/D/A/ | G/F/E/D/ E/G/E/G/ c4- | c/E/D/C/ D/F/D/F/ B4- | %139
 B/D/C/B,/ C/E/C/E/ =A/B/A/G/ A/c/A/c/ | d/e/d/c/ d/f/d/f/ b/=a/g/f/ e/d/c/B/ | %141
 =A/c/A/c/ B/d/B/d/ B/e/B/e/ A/e/A/e/ | d/e/d/c/ d/c/B/=A/ B/c/B/A/ B/_A/G/F/ | G z z2 z4 | z4 a4 | %145
 g4 f4 | e/f/e/d/ e/d/c/=B/ c/d/c/B/ c/_B/=A/G/ | =A z z2 z4 | z4 g4 | f4 e4 | d2 b2 a4 | %151
 g2 z2 z4 | z4 f4 | e4 _d4 | c4 =d4 | e4 f4- | f/B/e- e/d/e- e/d/c/B/ A/G/F/E/ | %157
 D/F/D/F/ E/G/E/G/ E/A/E/A/ D/A/D/A/ | G4- G/G/F/E/ F/E/D/C/ | B,/D/C/B,/ G2- G/B/=A/G/ cE | %160
 _D2 E2 F2 _G2 | F4 _G2 F2- | F2 z2 z4 | z8 | z f2 f- f/e/d/c/ B/A/G/F/ | %165
 =E/G/E/G/ F/A/F/A/ F/B/F/B/ E/B/E/B/ | A/G/F/=E/ F/A/G/F/ d/e/d/c/ d/c/B/A/ | %167
 G/A/G/F/ G/=A/=B/c/ B/c/d/e/ f/a/g/f/ | e/g/e/g/ f/a/f/a/ g2 a2 | g4 a2 gf | e4- e4 | _d4- d4 | %172
 c4- c4 | =B4[Q:1/4=70] z2 z[Q:1/4=120]!fff! d |[Q:1/4=80]"^ ="[Q:1/4=90] (d4 Mc4) | %175
 (f>e)(d>c) !breath!B3 A | (A4 G4) | (Pg>a)(g>f) (g>e)(Pd>c) | (Pf>g)(f>e) (f>d)(Pc>B) | %179
 (e>f)(e>d) e4- | e>fe>d e4- | e>fe>d e4- | e>fe>d e4- | e>ed>c d4 | d4 c4- | c>cd>e f4- | f4 e4- | %187
 e4 z z/ c<de/ | z z/ d<eg/ f>ed>e | d4 z2 z f | f8- | f4 z2 z d | (d4 c4-) | c4 B4- | B8- | %195
 B3 z/ B/ PA3 z/ G/ | G4 F3 z/ G/ | (A>BA>G) (A>fB>A) | (G>AG>F) (G>eG>F) | (E>FE>D) (E>cF>E) | %200
 (D>ED>C) D>(B,D>F) | (B>cB>A) B>(EG>B) | e2- e/d/c/B/ A>fB>A | %203
[Q:1/4=80] G>A[Q:1/4=70]B>E[Q:1/4=60] G>F[Q:1/4=50]!breath!.PE>D | %204
[Q:1/4=35] (D4[Q:1/4=15] !fermata!E4) |][M:8/4][Q:1/2=60] z16 |"^Fuga a 5 pro Organo pleno" z16 | %207
 z16 | z16 | z16 | z16 | B8 G4 c4 | B4 e8 d4 | e4 B4- B2 A2 G2 A2 | B2 c2 d4 c8 | %215
 B2 c2 d2 e2 f4 c2 d2 | e2 f2 g4- g6 f2 | e2 c2 f2 e2 d2 B2 e4- |!fff! e4 d4 e8 | %219
 z2 b2 a2 g2 a2 f2 b2 a2 | g4 a8 g4- | g4 f4- f2 a2 g2 f2 | e8- e4 d4- | d4 e4 f8- | %224
 f2 =a2 b2 e2 d4 c4 | B4 z4 z4 e4 | d4 g4 f4 b4- | b4 a8 g4 | f8- f2 e2 d2 c2 | d2 B2 e2 d2 c8 | %230
 B8 A8 | G4 c4 B4 e4- | e4 d4 =e4 f4- | f4 _e8 d4 | c8 B8- | B2 B2 c2 d2 e2 d2 e2 f2 | %236
 g2 f2 g2 a2 b2 c'2 b2 a2 | g2 e2 a4- a4 g4- | g4 f4- f4 e4- | e4 _d4- d4 c2 f2 | %240
[Q:1/2=55] d2 B2[Q:1/2=50] f8[Q:1/2=45][Q:1/2=40] d4 ||[M:6/4][Q:1/4=160] e6 z6 | z12 | z12 | z12 | %245
 z12 | z12 | z12 | z12 | z2 B=ABc dcdede | cBcdcd edefef | dcdefd e2 b2 _d2- | %252
 d2 c=Bce =d2 a2 c2- | c2 BdcB e6- | e2 f2 e2 d6- | dG c2 =B2 c2 d2 c2 | B6- B2 c2 B2 | %257
 A4 B2 c4 =d2 | e6 d2 g4 | f6- f6- | fefgfg agabab | gfg=aga babc'bc' | =a4 b4 Pa4 | b6 z6 | z12 | %265
 z12 | z12 | F2 B4- B2 =A4 | z12 | z12 | z12 | z6 z2 F=EFG | AGABAB cBc_dcB | AGABAB cBcdcd | %274
 edefef gfgagf | edef g2- g2 f2 e2- | ecde f2- f2 e2 a2- | a2 g2 ^f2 g=fgagf | efeded cBcedc | %279
 B4 B2 e4 =e2 | f4 c2 f4 ^f2 | g6- g2 c'4 | b2 a4- a2 g4- | g2 a2 g2- g2 f2 e2- | e2 d2 c2 f6- | %285
[Q:1/4=140] ffed[Q:1/4=120] e3 f[Q:1/4=90] Pd3 c ||[M:12/8] c3 z3 z4 x2 | z12 | z12 | z12 | z12 | %291
 z6 z3 gfg | c=e/d/e/c/ f_ef Bd/c/d/B/ e3- | e3 d3 g6 | f3 b6 =a3 | b z z b_ab eg/f/g/e/ aga | %296
 df/e/f/d/ g3- g3 f2 e | d3 z3 f6 | e3- e_de Ac/B/c/A/ dcd | GB/A/B/G/ e3 _d6- | %300
 dc z z3 z3 b/c'/b/a/g/f/ | =e/g/f/e/d/c/ f3- f3 e3 | f3 z3 z3 e3- | e3 d3- d3 c3 | %304
 Bc/d/e/f/ g/a/g/f/e/d/ cd/e/f/g/ a/g/f/e/d/c/ | =B/d/c/B/=A/G/ e3 d6- | %306
 d3 c/G/=A/=B/c/d/ e3- ede | =Ac/B/c/B/ d/c/d/e/d/c/ B3 z/ B/c/d/e/f/ | %308
 g3- g/b/a/g/f/e/ d/c/d/f/e/d/ e/d/e/g/f/e/ | a6 g/a/b/a/b/g/ c'3- | c'3 b6 a3- | %311
 a3 gfg ce/d/e/c/ fef | Bd/c/d/B/ e z z z3 e3- | e3 d3 g6 | f3 b6 =a3 | b6- b3 a3- | a3 g3 a6 | %317
 g3- g/b/a/g/f/e/ d/e/f/e/f/d/ g/a/g/f/e/d/ | %318
 c/d/e/d/e/B/[Q:1/4=90] f/g/f/e/d/c/ B/c/d/c/d/B/ e3- | e6 f3 e3 | %320
 a6-[Q:1/4=75] ag[Q:1/4=70]f-[Q:1/4=65] fe[Q:1/4=60]f | %321
[Q:1/4=50] MB3[Q:1/4=35] !breath!Md3[Q:1/4=15] !fermata!e6 |] %322
V:2
 x7 B | A8- | A4 z2 z F | F4 ME4 | x8 | x8 | z4 z z/ c<B=A/ | G4- G>B=A>G | F4- F>G=A>B | %9
 =A4- A>AB>c | F8- | F3 z/ F/ PE3 z/ D/ | C2 z2 z z/ F<G=A/ | B4- B>Bc>d | c4 B4- | B4 =A4 | %16
 B4 z2 z d | d4- d3 z/ c/ | P=B4 z2 z G | G8 | A>BA>G A>FE>D | G8- | G3 z/ G/ F3 z/ E/ | E4 D4 | %24
 x8 | x8 | x8 | x8 | x8 | z z/ C<DE/ F4- | .F2 .E2 .C2 .B,2 | B,8 | z2 .E2 .D2 .E2 | x8 | %34
 z2 .E2 .D2 .E2 | x8 | z2 .B2 .=A2 .B2 | .PE2 .D2 z4 | z2 .B2 .=A2 .B2 | .PE2 .D2 z2 F2 | %40
 G2 F2 G2 z2 | F2 E2 F2 z2 | E2 D2 E2 x2 | x8 | x8 | x6 F2 | F2 z2 z2 x2 | x8 | F2 E2 _D2 C2 | %49
 z z/ G<FE/ F>ED>C | D4 z2 z D | x7 z/ f/ | f8 | f z z2 x4 | x4 z2 d2 | d2 B2 z4 | x4 z2 g2 | %57
 g2 e2 z2 B2 | A>BA>G G>ED>C | G>AG>F G>ED>C | F>GF>E F4- | F>GF>E F4- | F>GF>E F4- | F>GF>E F4- | %64
 F>FE>D E4- | E4 D4- | D>DE>F G4- | G4 F4- | F4 E4 | D>EF>A G>FE>D | x c2 c- c/B/A/G/ F/E/D/C/ | %71
 x8 | E2 z2 z4 | E2 x6 | x8 | x8 | F4x/A/G/F/ G/F/E/D/ | E2 F2 G2 A2 | G4 A2 G2- | G2 cG A4- | %80
 AAFB G4- | G/B/A/G/ A/G/F/E/ D2 z2 | x4 z4 | G2 A2 B2 c2 | D/F/D/F/ E/G/E/G/ E/A/E/A/ D/A/D/A/ | %85
 G/A/G/F/ G/B/G/B/ E/d/c/B/ c/e/c/e/ | =A/B/A/G/ A/c/A/c/ F/e/d/c/ d/f/d/f/ | B2 c2 d2 e2- | %88
 e2 z F G2 FE | F4- F2 E2- | E4 x4 | z G2 G- G/F/E/D/ c2- | c2 B2 =A4 | %93
 B/=A/G/^F/ G/B/G/B/ E z z2 | z/ g/f/e/ f2- f/e/d/c/ d2- | d/f/e/d/ e2- e/d/c/=B/ c2- | %96
 c/e/_d/c/ d2- d/c/B/A/ B2- | x4 z2 z c | c8 | _d>ed>c d>BA>G | c8- | c3 z/ c/ B3 z/ A/ | A4 G4 | %103
 z z/ c<BA/ B z z2 | z z/ B<AG/ A z z2 | z z/ x3 z F/ z2 | z z/ F<ED/ E2 z2 | E>FE>_D E3/2xxE/ | %108
 _d4 z4 | z2 e2- e>_dc>B | B4 A2 z2 | z2 .A2 .G2 .A2 | x8 | z2 .A2 .G2 .A2 | %114
 x4 z2!f!"^forte" (A/G/F/E/) | .B2 .c2 .PA2 .G2 | x4 z2"^piano"!f!!p! (A/G/F/E/) | %117
 .B2 .c2 .PA2 .G2 | x4 z2 B2 | c2 B2 c2 z2 | B2 A2 B2 z2 | A2 G2 A2 z2 | F2 E2 F2 x2 | %123
 E2 z2 z2 E2 | F2 z2 z2 B2 | B2 z2 z2 _G2 | A2 _G2 F2 D2 | B2 A2 _G2 F2 | z z/ c<BA/ B>AG>F | %129
 G2 z2 z4 | z8 | z B2 B- B/=A/G/F/ E/D/C/x/ | x5/2 D/x/D/ x/ E/x/E/ x/ E/x/E/ | D/ x2 D/x/D/ G4- | %134
 G/G/F/=E/ F/A/F/A/ D/F/_E/D/ E/G/E/G/ | C2 A2 G2 F/E/D/C/ | x8 | x8 | x8 | x8 | x8 | x8 | x8 | %143
 x/ A/G/F/ G/F/E/D/ E/F/E/D/ E/D/C/x/ | z4 z2 f2- | f2 e2 d4 | c z z2 x4 | %147
 F/B/=A/G/ A/G/F/=E/ F/G/F/E/ F/_E/D/C/ | z4 z2 e2- | e2 d2 c4 | B2 g2- gf _d2- | dc- cc _d3 c- | %152
 c4- ce_dc | B2 A2 B4- | B/B/A/G/ F/A/F/A/ =DF B2- | B/_d/c/B/ A/c/A/c/ FG A2 | G>A B3/2x x7/2 | %157
 x8 |x/F/E/D/ E/D/C/x/ x4 | x8 | z B2 B- B/A/_G/F/ E/_D/C/x/ | x5/2 _D/x/D/ x/ E/x/E/ x/ E/x/E/ | %162
 _D/E/D/C/ D/F/D/F/ B,/A/G/F/ G/B/G/B/ | =E/F/E/D/ E/G/E/G/ C/B/A/G/ A/c/A/c/ | F2 G2 A2 B2- | %165
 B2 x6 | x8 | z8 | c2 d2 e2 f2- | f2 e2 d4- | d/d/c/=B/ c2- c/_B/A/G/ A2- | %171
 A/c/B/A/ B2- B/A/G/F/ G2- | G/B/A/G/ A2- A/G/F/E/ F2- | F/G/F/E/!f! D/x/ x4 =B | =B4 c4 | %175
 B4 z2 z F | F4 ME4 | x8 | x8 | z4 z z/ c<B=A/ | G4- G>B=A>G | F4- F>G=A>B | =A4- A>AB>c | F8 | %184
 F3 z/ F/ PE3 z/ D/ | C2 z2 z z/ F<G=A/ | B4- B>Bc>d | c4 B4- | B4 =A4 | B4 z2 z d | d4- d3 z/ c/ | %191
 P=B4 z2 z G | G8 | A>BA>G A>FE>D | G8- | G3 z/ G/ F3 z/ E/ | E4 D4 | x8 | x8 | x8 | x8 | x8 | %202
 z z/ C<DE/ F4- | .F2 .E2 .C2 .B,2 | B,8 |][M:8/4] x16 | x4 E8 D4 | E2 F2 G2 A2 B2 B,2 E2 F2 | %208
 G2 F2 E2 D2 E2 C2 F2 E2 | D4 B8 A4- | A4 G4- G2 C2 F2 E2 | D2 B,2 C2 D2 E4 A4 | G8 F8 | x8 D4 x4 | %214
 E4 B8 =A4 | B8- B4 _A4- | A4 G2 A2 B2 c2 d4 | G4 F4- F4 G4 | F2 E2 F4 G4 F2 E2 | D4 E4 F8 | %220
 E2 e2 d2 c2 d2 B2 e2 d2 | c8 d8- | d4 c2 B2 c8 | B4 c4- c2 e2 d2 c2 | d6 c2- c2 B4 =A2 | %225
 B4 B4 G4 c4 | B4 e4- e4 d4 | x12 e4 | c4 B4- B4 A4- | A4 G4- G2 G2 F2 E2 | F2 D2 G2 F2 E4 F4- | %231
 F4 E4 D4 G4 | F4 B4- B4 A4 | G8 F8- | F8- F2 D2 E2 F2 | G4 F4 E2 F2 G2 A2 | B2 A2 B2 c2 d2 e2 f4 | %237
 e8 f4 e4- | e4 B4- B2 d2 e2 B2 | c4 B4- B4 A2 c2 | B4 B4 B8 ||[M:6/4] B6 z6 | z12 | z12 | z12 | %245
 z12 | z12 | z2 EDEF GFGAGA | FEFGFG AGABAB | G2 G4 F2 B2 =A2 | G6- G2 F4- | F2 BcBA GAGFGE | %252
 ABAGAG FGFEFE | GA G4- G2 A2 G2 | F6- F2 G2 F2 | E2 F2 G2 A6 | G6- x6 | GGF=EFG AGABAB | %258
 GFG=AGA B4 e2- | e2 F2 =A2 cBcdcd | B4 z2 z2 f4 | e2 z2 z2 z2 g4- | ggfedc de c4 | d6 z6 | z12 | %265
 z12 | z2 E4 D2 G4 | DCDEDE FEFGFE | DCDE F2- F2 E2 D2 | EDEF G2- G2 F2 =E2 | F2 C4- C2 x4 | %271
 F2 =E2 G2 x6 | x4 F2 G6- | G2 F4 E2 A4 | B2 c4- c2 =B4 | c2 cdcB ABAGAG | F2 BcBA GAGFGF | %277
 EFEDEC D2 E4 | x6 =A6- | A2 G4- G2 c4- | c2 =A4- A2 d4- | dcdecd edefef | g3 efe d3 fed | %283
 c6- c6- | c2 =B2 c2- c2 B2 d2 | G2 =B2 c4 B4 ||[M:12/8] G3 z3 z4 x2 | x12 | x12 | %289
 z3 cBc FA/G/A/F/ BAB | C3 A3- A3 G3- | G3 ^F3 G3 z3 | z12 | %293
x>xD/E/ F/E/F/G/A/B/ E3 z/ F/E/D/x/ x/ | e3 ded- dec- cBc | FG/=A/B/c/ d3 c6 | B3 e3- e3 c3 | %297
 B3 c/d/e/d/c/B/ =A/B/c/B/c/A/ B/c/_d/c/B/_A/ | G/A/B/A/B/G/ A z z z4 x2 | z3 cBc FA/G/A/F/ BAB | %300
 EF/G/A/B/ c/A/B/c/=d/=e/ f/e/f/g/a/f/ B3- | B3 A3 c3 B3 | F3 _d3- d3 c3- | c3 B3- B3 A3- | %304
 A3 G3- G3 F3- | F3 E3 F_A/G/A/F/ D G2- | G3 z3 z4 x2 | x DE =A3- A3 G3 | c6 B3 e3- | %309
 e3 d3 e3- e/d/e/f/d/e/ | f3- f/e/f/g/f/g/ e3- e/d/e/f/e/f/ | d/e/f/e/d/c/ BAB G3 AGA | %312
 F3 B3- B/_d/c/B/A/G/ A3- | A6 z/ f/e/_d/c/B/ c3 | =d3 z/ a/g/f/e/d/ e6 | %315
 d/B/c/d/e/f/ gfg ce/d/e/c/ fef | Bd/c/d/B/ e3- e3 d3 | e/f/e/d/e/g/ c3 B3 B3 | c6 F z z B3- | %319
 B3 A3- A3 G3 | f6- fed- dec | B3 A3 G6 |] %322
V:3
 E4 z2 z E | F8- | F4 x3 D | (D4 E4) | x8 | x8 | x8 | x8 | x8 | x8 | x8 | x8 | x8 | z z/ D<EF/ G4 | %14
 z z/ F<G=A/ F4- | F8 | F4 z2 z F | F4 G4- | G4 z2 z D | x8 | x8 |x>FE>D E3/2x x3/2 | %22
 C4- C3 z/ C/ | B,3 z/ C/ D4 | x8 | x8 | x8 | x8 | x8 | x8 | x8 | x8 | x8 | x8 | x8 | x8 | x8 | %37
 x8 | x8 | x8 | E2 D2 E2 C2 | D2 C2 D2 B,2 | C2 B,2 C2 z2 | x8 | x8 | x8 | x8 | x8 | x8 | %49
 z z/ E<=DC/ D>Cx x | x8 | z4 z2 z z/ c/ | c8 | B x7 | x6 B2 | B2 G2 x4 | x6 e2 | e2 c2 z2 E2 | %58
 F4 z2 z z/ C/ | x4 z2 z z/ C/ | x8 | x8 | x8 | x8 | x8 | x8 | x8 | D4 x3/2 E<DC/ | G>=B,C>D x4 | %69
 x8 | E x7 | x8 | x8 | x8 | x8 | x8 | x8 | x8 | x8 | x8 | x8 | x8 | x8 | x8 | x8 | x8 | x8 | x8 | %88
 x8 | x8 | x8 | x8 | x8 | x8 | x8 | x8 | x8 | x4 z2 z G | x8 | x8 |x/xB<AG/ A>E_D>C | %101
 F4- F3 z/ F/ | E3 z/ D/ E3 z/ C/ | _D>ED>C D>BE>!trill)!D | C>_DC>B, C>AC>B, | x8 | x8 | x8 | %108
 A2- A/G/F/E/ _D>BE>D | C>_DE3/2x x3 E/ | E8 | x8 | x8 | x8 | x8 | x8 | x8 | x8 | x4 z2 E2 | %119
 A2 G2 A2 F2 | G2 F2 G2 E2 | F2 E2 F2 C2 | D2 C2 D2 C2 | x8 | x8 | E2 F2 _G2 E2 | F2 E2 D2 B,2 | %127
 E2 x6 | z z/ A<=GF/ G>FE>D | E z x6 | x8 | x8 | x8 | x8 | x8 | x8 | x8 | x8 | x8 | x8 | x8 | x8 | %142
 x8 | x8 | x8 | x2 E2 F2 G2- | G x2 D ECD=E | x8 | x5 FE z | x2 D2 E2 F2- | x2 _d2 c3 B- | %151
 B2 A2 z B G2 | F4- FFGA | B2 E2 F2 E2- | E2 x6 | x8 | x8 | x8 | x8 | x8 | x8 | x8 | x8 | x8 | x8 | %165
 x8 | x8 | x8 | x8 | x8 | x8 | x8 | x8 | x7 G | G8 | F4 x3 D | (D4 E4) | x8 | x8 | x8 | x8 | x8 | %182
 x8 | x8 | x8 | x8 | z z/ D<EF/ G4 | z z/ F<G=A/ F4- | F8 | F4 z2 z F | F4 G4- | G4 z2 z D | x8 | %193
 x8 |x>FE>D E3/2x x3/2 | C4- C3 z/ C/ | B,3 z/ C/ D4 | x8 | x8 | x8 | x8 | x8 | x8 | x8 | x8 |] %205
[M:8/4] x16 | x16 | x16 | x16 | x16 | x16 | x16 | x16 | E8 D4 G4 | x16 | x16 | x16 | x16 | x16 | %219
 x16 | x16 | z2 B2 A2 G2 A2 F2 B2 A2 | G8 F8 | G8 F4 =A4 | B2 =A2 G4 F8- | %225
 F2 B,2 C2 D2 E2 D2 E2 F2 | G2 F2 G2 A2 B2 F4 x2 | e2 g2 f2 e2 f2 d2 z2 B2 | A2 G2 A2 F2 G4 x4 | %229
 x16 | D2 B,2 E2 D2 C4 D4- | D2 x14 | x2 E2 F4 G2 x6 | x16 | x16 | x16 | x4 G4 F4 B4- | B4 c4 B8 | %238
 A8 G8 | F8 E6 A2 | F4 G6 x6 ||[M:6/4] E6 z6 | x12 | x6 DCDEDE | CB,CDCD EDEFEF | DEDCD x7 | x12 | %247
 x8 E4- | E6- E2 D4 | E2 E4 D2 G2 F2 | EDEFE x7 | x12 | x12 | z2 EFED x6 | x12 | x2 D2 E2 x2 F4- | %256
 F2 E2 D2 G6- | x12 | x12 | x12 | x12 | x12 | x12 | x12 | x12 | x12 | x12 | z12 | B4 z2 B4 A2 | %269
 G4 z2 c4 B2- | B2 A2 G2 F6- | x12 | x12 | x12 | x12 | x12 | x12 | x8 z2 G2 | x2 G4- G2 ^F4 | %279
 G=FEFED x6 | x12 | x12 | EDEFEF GFGAGF | EFEDED x6 | x12 |x9xDF ||[M:12/8] E3 z3 z4 x2 | %287
 z3!fff! GFG CE/D/E/C/ FEF | B,D/C/D/B,/ E z z D/C/B,/C/D/E/ F z z | E/F/G/F/E/D/x_DE D3- D x2 | %290
 EG/F/G/E/ x3 DF/E/F/E/ x3 | CE/D/E/C/ x9 | x12 | x6 z/ G/A/B/c/d/ e3- | %294
 z4 x E/F/ G/_A/G/F/E/D/ E3 | E3 D3 G6 | F3 B3- B3 A3- | A3 GFG CE/D/E/C/ FEF | x3 E/ x17/2 | x12 | %300
x7xF- F=EF | G3 F3 G6 | A6 G6 | F6 E3 z3 | E6 z4 x2 | z12 | %306
 x5/2 D/ E/D/C/D/E/F/ G/_A/G/F/E/D/ C/D/C/x/ x | z3 x11/2 D/ E3- | E/C/D/E/F/G/ _A3- A3 G3 | %309
 F6 E6 | x12 | x12 | x3 G3- G3- G3 | F6 x2 z z/ B/A/G/F/E/ | B3 z3 z/ d/c/B/=A/G/ c3 | %315
 F z z z3 z4 x2 | x3 cBc FA/G/A/F/ BAB | EG/F/G/E/ A3- A3 G3- | G3 F2 E D/E/F/E/F/D/ G3- | %319
 G3 F2 E B6 | A3 B3- B/D/E/F/G/A/ B2 A | G3 F3 E6 |] %322
V:4
 B,4 z2 z B, | B,8- | B,4 z2 z B, | [E,B,]8 | z2 z z/ G,/ C4- | C3 z/ C/ B,4- | B,4- B,>=A,G,>F, | %7
 B,4- B,>DC>B, | C4- C>B,=A,>G, | F,4- F,>E,D,>C, | F,4 z z/ F,<E,F,/ | G,4- G,>G,F,>G, | =A,4 z4 | %13
 x2 z2 z z/ G,<=A,B,/ | C4 x4 | x8 | F,2- F,/E,/D,/C,/ !breath!B,,3 A, | (A,4 G,4) | %18
 D2- D/C/=B,/=A,/ !breath!G,3 F, | G,8 | F,4 z2 z z/ F,/ | G,3/2 x/ x2 x x/ B,<A,G,/ | %22
 z z/ G,<F,E,/ F,>C,D,>E, | B,,>E,G,>=A, B,3 z/ B,/ |"^t" !trill(!TB,8- | !trill)!B,8- | %26
 .B,>A,G,>F, G,>E,PD,>C, | B,,>G,F,>E, F,4- | F,3 z/ F,/ E,3 z/ G,/ | A,4 z2 z z/ B,/ | %30
 .B,2 .B,2 .A,2 .A,2 | (A,4 G,4) | z2 .A,2 .F,2 .E,2 | .PA,2 .G,2 z4 | z2 .A,2 .F,2 .E,2 | %35
 .PA,2 .G,2 z4 | z2 .E2 .C2 .B,2 | .=A,2 .B,2 z4 | z2 .E2 .C2 .B,2 | .=A,2 .B,2 z2 B,2 | x8 | x8 | %42
 x6 G,2 | C2 B,2 C2 =A,2 | B,2 z2 z2 B,2 | C2 z2 z4 | B,2 C2 _D2 _D2 | E2 _D2 C2 =A,2 | %48
 B,2 E,2 F,4 | B,4- B,>G,F,>E, | B,4 x4 | (B,4 P=A,4) | C>B,=A,>G, F,3 E, | (E,4 PD,4) | %54
 B,2 x2 x4 | A,G,/A,/B,/A,/G,/F,/ G,2 z2 | z E,/F,/G,/A,/B,/C/ _D4- | DC/_D/E/D/C/B,/ C>=D B,2 | %58
 C4 z2 z z/ =B,/ | =B,4 z2 z z/ G,/ | D4- D>DC>=B, | C4 z z/ C<DE/ | D8- | D>ED>C D3 z/ G,/ | %64
 G,8- | G,4 F,4- | F,4 z z/ G,<=A,=B,/ | C4- C2 z2 | x4 C4 | D8 | C2 z2 z4 | F,2 E,2 D,2 G,2 | %72
 x2 D2 C2 D2 | x2 D2 C2 D2- | D4- D/D/C/=B,/ C/_B,/=A,/G,/ | =A,2 C2- C/E/D/C/ D/C/=B,/=A,/ | %76
 =B,CDC C/ x/ x x2 | z C2 C- C/B,/A,/G,/ F,/E,/D,/C,/ | %78
 =B,,/D,/B,,/D,/ C,/E,/C,/E,/ C,/F,/C,/F,/ B,,/G,/B,,/G,/ | %79
 C,/F,/E,/D,/ E,/G,/E,/G,/ F,,/G,/F,/E,/ F,/A,/F,/A,/ | %80
 B,,/E,/D,/C,/ D,/F,/D,/F,/ E,,/F,/E,/D,/ E,/G,/E,/G,/ | %81
 A,,/G,/F,/E,/ F,/E,/D,/C,/ B,,/A,/G,/F,/ G,/F,/E,/D,/ | %82
 C,/B,/A,/G,/ A,/G,/F,/E,/ D,/C/B,/A,/ B,/A,/G,/F,/ | E,2 F,2 G,2 A,2- | A,2 G,2 F,2 B,2 | %85
 !>!E,!>!B,!>!E!>!D !>!C!>!E!>!=A,!>!C | !>!F,!>!C!>!F!>!E !>!D!>!F!>!B,!>!D | G,2 E,2 F,2 G,2 | %88
 F,B,, D4 C2 | B,2 z D EDCB, | x4 D4- | D2 x2 x2 C/B,/=A,/G,/ | %92
 ^F,/=A,/F,/A,/ G,/B,/G,/B,/ G,/C/G,/C/ F,/C/F,/C/ | G,/C/B,/=A,/ B,/D/B,/D/ C,/D/C/B,/ C/E/C/E/ | %94
 F,/B,/A,/G,/ A,/C/A,/C/ B,,/C/B,/A,/ B,/D/B,/D/ | %95
 E,/A,/G,/F,/ G,/B,/G,/B,/ A,,/B,/A,/G,/ A,/C/A,/C/ | %96
 _D,/G,/F,/=E,/ F,/A,/F,/A,/ G,,/A,/G,/F,/ G,/B,/G,/B,/ | C,2 z2 x2 x B, | C8 | B,4 z2 z z/ B,/ | %100
 C3/2 x/ x2 x4 | z z/ C<B,A,/ B,>F,G,>A, | E,>A,C>x x4 | z8 | z8 | z z/ _D<CB,/ C x x2 | %106
 G,>A,G,>F, G,>E,G,>B, | x4 x x/ A,<C x/ | x8 |x2x/xA,/ C>B,A,>G, | (G,4 A,4) | z2 ._D2 .B,2 .A,2 | %112
 .P_D2 .C2 z4 | z2 ._D2 .B,2 .A,2 | .P_D2 .C2 z4 | z2 .A,2 .F,2 .E,2 | .PA,2 .G,2 z4 | %117
 z2 .A,2 .F,2 .E,2 | .PA,2 .G,2 z4 | z8 | z8 | z8 | x6 B,2 | E,2 F,2 _G,2 E,2 | B,2 C2 D2 B,2 | %125
 x8 | x8 | x2 A,2 B,4 |x4x/xC<B,A,/ |!fff! B, x x2 z C/B,/ A,/G,/F,/E,/ | %130
 D,/F,/D,/F,/ E,/G,/E,/G,/ E,/A,/E,/A,/ D,/A,/D,/A,/ | x6 x3/2 B,/ | %132
 =A,/C/A,/C/ B,/x/B,/x/ B,/x/B,/x/ A,/x/A,/x/ |x/C/B,/=A,/ B,/x/B,/ x/ x4 | C4 B,4 | A,4 B,2 C2 | %136
 B,4 C2 B,2 | B,4- B,/B,/A,/G,/ A,/C/A,/C/ | F,4- F,/A,/G,/F,/ G,/B,/G,/B,/ | %139
 E,4- E,/G,/F,/E,/ F,/A,/F,/A,/ | B,/C/B,/=A,/ B,/D/B,/D/ E4- | E2 D2 C4 | B, z z E, F, z z B,- | %143
 B,/x/ x6 x/ =B,/ | C4- C2 =B,C | D2 x6 | C=B,Cx x4 | z C!>!F,!>!G, !>!=A,!>!F,!>!G,!>!A, | %148
 D4- DxxD | C2 F,2 G,2 F,2 | B,2 z2 z4 | =E,/G,/E,/G,/ F,/A,/F,/A,/ F,/B,/F,/B,/ E,/B,/E,/B,/ | %152
 A,4- A,2 _D2- | D2 C2 B,4 | x2 C2 B,/ z/ z x2 | E,G, C2- C/E/=D/C/ B,/A,/G,/F,/ |x2x/xB,/ C4 | %157
 B,2 E,2 C2 B,2- | B,/ x/ x x3/2 B,/ A,2 z2 | z8 | B,,2 C,2 _D,2 E,2- | %161
 =A,/C/A,/C/ B,/x/B,/x/ B,/x/B,/x/ A,/x/A,/x/ | B,,F,B,A, G,B,=E,G, | C,G,CB, A,CF,A, | %164
 _D,2 B,,2 C,2 D,2 | x2 C2 _D2 CB, | C4 B,4 | %167
 E,/F,/E,/D,/ E,/G,/F,/E,/ D,/C,/=B,,/=A,,/ G,,/F,,/E,,/D,,/ | C,, C2 C- C/B,/A,/G,/ F,/E,/D,/C,/ | %169
 =B,,/D,/B,,/D,/ C,/E,/C,/E,/ C,/F,/C,/F,/ B,,/G,/B,,/G,/ | %170
 C,/F,/E,/D,/ E,/G,/E,/G,/ F,,/G,/F,/E,/ F,/A,/F,/A,/ | %171
 B,,/E,/_D,/C,/ D,/F,/D,/F,/ E,,/F,/E,/_D,/ E,/G,/E,/G,/ | %172
 A,,/_D,/C,/B,,/ C,/E,/C,/E,/ =D,,/E,/=D,/C,/ D,/F,/D,/F,/ | x2 x/ C/=B,/=A,/ .G,3 G, | B,8 | %175
 B,4 z2 z B, | [E,B,]8 | z2 z z/ G,/ C4- | C3 z/ C/ B,4 | B,4- B,>=A,G,>F, | B,4- B,>DC>B, | %181
 C4- C>B,=A,>G, | F,4- F,>E,D,>C, | F,4 z z/ F,<E,F,/ | G,4- G,>G,F,>G, | =A,4 z4 | %186
 x2 z2 z z/ G,<=A,B,/ | C4 x4 | x8 | F,2- F,/E,/D,/C,/ .B,,3 A, | (A,4 G,4) | %191
 D2- D/C/=B,/=A,/ .G,3 F, | G,8 | F,4 z2 z z/ F,/ | G,3/2 x/ x2 x x/ B,<A,G,/ | %195
 z z/ G,<F,E,/ F,>C,D,>E, | B,,>E,G,>=A, B,3 z/ B,/ |"^t" !trill(!TB,8- | !trill)!B,8- | %199
 .B,>A,G,>F, G,>E,PD,>C, | B,,>G,F,>E, F,4- | F,3 z/ F,/ E,3 z/ G,/ | A,4 z2 z z/ B,/ | %203
 .B,2 .B,2 .A,2 .A,2 | (A,4 !fermata!G,4) |][M:8/4]!ff!!f! B,8 G,4 C4 | B,4 x12 | E,8 D,4 G,4 | %208
 E,4 B,8 =A,4 | B,2 C2 D2 E2 F2 F,2 C2 D2 | E2 E,2 F,2 G,2 A,8- | A,2 G,2 A,2 B,2 C2 B,2 C2 D2 | %212
 E2 D2 C2 B,2 A,2 F,2 B,2 A,2 | B,2 A,2 B,2 C2 x4 B,4- | B,2 A,2 G,2 F,2 G,4 F,4- | %215
 F,8- F,2 G,2 A,2 B,2 | C4 B,4 E4 D4 | C8 B,8- | B,8- B,4 C4 | B,8 C4 B,4- | B,4 z4 z8 | z16 | %222
 z16 | z2 F2 E2 D2 E2 C2 F2 E2 | D6 G,2 =A,2 B,2 C4 | D4 z4 z8 | z8 x6 D2 | B,4 E4 D4 x4 | x16 | %229
 B,4 C2 B,2 A,8- | A,4 G,4- G,2 F,2 E,2 D,2 | x2 F,2 G,2 A,2 B,2 A,2 B,2 C2 | D2 x8 G,2 A,2 B,2 | %233
 C2 G,2 C2 B,2 =A,4 B,4- | B,4 A,4- A,4 G,2 A,2 | B,8- B,4 E4 | D4 x12 | E4 x2 A,2 F,4 G,4 | %238
 C4 z2 F,2 G,2 A,2 B,2 D2 | C2 A,2 _D2 C2 B,2 G,2 C2 A,2 | B,8- B,2 C2 B,2 A,2 || %241
[M:6/4] G,2 E,D,E,F, G,F,G,A,G,A, | F,E,F,G,F,G, A,G,A,B,A,B, | z2 B,=A,B,C B,2 F,2 B,2- | %244
 B,2 =A,G,A,B, C2 G,2 A,2 |x4xB, CB,CDCD | B,CB,A,B,G, A,G,A,B,A,B, | G,F,G,A,G,F, E,2 C2 B,2 | %248
 A,2 G,2 A,2 F,2 B,2 B,,2 | E,D,E,F,G,=A, B,6- |x4xD C6 | B,2 z2 z2 z6 | z12 | x6 CDC=B,C=A, | %254
 DEDCDC =B,CB,=A,B,G, | C2 x4 A,2 x4 | x6 C6- | C4 _D2 C2 F4 | B,=A,B,CB,C DCDEDE | %259
 CB,CDCD EDEFEF | DCDEDE F2 B,4- | B,2 EFEF G2 C4- | C4 B,2 G,2 z =A,CF- | F2 z2 z2 z2 B,4 | %264
 G,2 C4 B,2 E4- | E2 PD4 E2 E,D,E,F, | G,F,G,=A,G,A, B,A,B,CB,C | B,2 z2 G,2 D,2 E,2 F,2 | %268
 B,,2 B,CB,A, G,A,G,F,G,F, | E,G,C_DCB, A,B,A,G,A,G, | x8 B,2 A,2 | x6 C4 B,2 | C4 _D2 x2 z2 C2- | %273
 C2 z2 z2 z6 | z12 | z12 | z12 | z2 C2 =B,4 x4 | C2 x2 x8 | x6 CDCB,CB, | =A,CFGFE DEDCDC | %281
 =B,=A,B,CA,B, C=B,CDCD | G,2 C4- C2 =B,4 | x6 C_DCB,CB, | A,B,A,G,A,G, F,G,F,E,F,E, | %285
 D,2 G,4 A,2 z =B, x2 ||[M:12/8] C,E,G, CB,C F,A,/G,/A,/F,/ B,A,B, | E,G,/F,/G,/E,/ B,6 A,3- | %288
 A,3 G,/F,/E,/F,/G,/A,/ B, z z A,/G,/F,/G,/A,/B,/ | x3 Cx4xxCB, | C3- C2 C x3 B,3 | %291
 x3 =A,2 C- CB,A, B,3- | B,_A,G, A,3- A,G,F, G,/F,/E,/F,/G,/A,/ | B,/A,/B,/C/ x2 x4 z3 C/B,/ | %294
 =A,/F,/G,/A,/B,/C/ D/B,/C/D/x/ x/ x2 x C3 | B,6- B,3 A,3- | A,3 G,A,B, C2 G, A,G,A, | %297
 B,3 z3 z4 x2 | B,3x/E,/F,/G,/A,/B,/ C3- C/_D,/E,/F,/G,/A,/ | B,/C/_D/C/D/B,/ C/D/E/D/E/C/ B,6 | %300
 A,6- A,C z4 | z3 DCD G,B,/A,/B,/G,/ CB,C | F,A,/G,/A,/F,/ B,A,B, E,G,/F,/G,/E,/ A,G,A, | %303
 _D,E,/F,/G,/=A,/ B,/C/B,/_A,/G,/F,/ G,/E,/F,/G,/A,/B,/ C/B,/A,/B,/C/_D/ | x6 A,6 | %305
 G,3 A,G,A, D,F,/E,/F,/D,/ G,F,G, | z/ G,/=A,/=B,/C/x/ x6 x3/2 _B,/=A,/B,/ | %307
 Cx x =A,3 B,/G,/A,/B,/C/x/ x x2 | z12 | z4 x2 z3 CB,C | D6 C6 | B,2 C D3 E3 C3 | D3 x8 x | %313
 x6 B,2 x4 | x3 B,3 z3 x x2 | x3 z3 z4 x2 | z12 | z3 FEF B,D/C/D/B,/ EDE | A,6 B,3 B,A,B, | %319
 E,G,/F,/G,/E,/ A,G,A, D,/B,,/C,/D,/E,/F,/ G,/E,/F,/G,/A,/B,/ | %320
 C/A,/B,/C/D/E/ F/G/F/E/D/C/ B,3- B, E2- | EG,A, B,3 !fermata!B,6 |] %322
V:5
 G,4 x4 | x8 | x4 z2 z F, | x8 | z4 z2 z z/ G,/ | F,4 z2 z z/ F,/ | G,3 z/ F,/ G,2 z2 | %7
 z2 z z/ F,/ G,2 z2 | z2 z z/ F,/ C,2 z2 | z2 z z/ F,,/ F,2 z z/ F,/ | B,,4 z4 | %11
 z z/ B,,<C,D,/ E,4- | E,4 D,4- | D,2 x6 | x8 | x8 | x8 | x8 | x8 | (F,4 E,4-) | E,3 z/ E,/ D,4 | %21
 E,4 z4 | x8 | x8 | x8 | x8 | x8 | x8 | x8 | x4 z2 z z/ F,/ | .G,2 .G,2 .E,2 .B,,2 | B,,8 | x8 | %33
 .D,2 .E,2 z4 | x8 | .D,2 .E,2 z4 | x8 | x8 | x8 | x8 | x8 | x8 | x8 | =A,2 G,2 A,2 F,2 | %44
 B,,2 C,2 _D,2 B,,2 | F,2 G,2 =A,2 F,2 | x6 B,2 | C2 B,2 =A,2 F,2 | x8 | B,,4 z4 | %50
 F,2- F,/!f!E,/D,/C,/ .B,,3 B, | x8 | x8 | x8 | z B,,/C,/D,/E,/F,/G,/ A,4- | x8 | x8 | x8 | %58
 x6 z z/ A,/ | G,4 x4 | F,4 z2 z z/ G,/ | A,3 z/ G,/ A,4- | A,3 z/ G,/ A,3 z/ F,/ | %63
 G,4 z2 z z/ D,/ | E,4 z4 | z z/ C,<D,E,/ F,3 z/ E,/ | D,4 E,4- | E,>E,F,>G, A,3/2x x3/2 | %68
 z z/ G,<=A,=B,/ G,4- | G,8- | G,2 D,2 E,2 F,2- | x8 | C2 B,2 =A,2 B,2 | C2 B,2 =A,2 D,2 | %74
 G,2 B,2 C,2 z2 | F,2 E,2 D,2 z2 | G,4- G, z z2 | x8 | x8 | x8 | x8 | x8 | x8 | x8 | x8 | x8 | x8 | %87
 x8 | x8 | x8 | =A,B,A,G, ^F,D,=E,F, | G, x7 | x8 | x8 | x8 | x8 | x8 | x8 | B,4 A,4- | %99
 A,3 z/ A,/ G,3 z | A,4 z4 | x8 | x8 | x8 | x8 | A,>B,A,>G, A,>xB,>A, | x8 | x8 | x8 | x8 | x8 | %111
 x8 | .G,2 .A,2 z4 | x8 | .G,2 .A,2 z4 | x8 | .D,2 .E,2 z4 | x8 | .D,2 .E,2 z4 | x8 | x8 | x8 | %122
 x8 | x8 | x8 | x8 | x8 | x8 | E,4 z4 | x8 | x8 | G,2 F,2 E,4- | E,2 D,2 C,4 | %133
 B,,2 F,2- F,/F,/E,/D,/ E,/G,/E,/G,/ | x8 | x8 | F,2 G,2 A,2 F,2 | E,4- E,4 | D,4- D,4 | C,4- C,4 | %140
 F,4 z2 G,2 | F,2 B,2 G,2 F,2- | F,=A,,B,,C, D,B,,C,D, | E,D,E,F, G,E,F,G, | A,4- A,2 z2 | %145
 B,,2 G,2 A,2 G,2- | G, z z2 z4 | x8 | B,4- B,G,=A,B, | x8 | x6 B,/A,/G,/F,/ | x8 | x8 | x8 | %154
 C2 A,2- A,/C/B,/A,/ G,/B,/G,/B,/ | x8 | E,>F, G,2 A,4- | A,2 G,2 F,4 | %158
 E,/D,/C,/B,,/ C,/B,,/A,,/G,,/ F,,/E,/D,/C,/ D,/C,/B,,/A,,/ | %159
 G,,/F,/E,/D,/ E,/D,/C,/B,,/ =A,,/_G,/F,/E,/ F,/E,/_D,/C,/ | x15/2 B,/ | E,2 _D,2 C,2 F,2 | x8 | %163
 x8 | x8 | C,F,, A,4 G,2 | F,2 z A,- A,A,G,F, | x8 | x8 | x8 | x8 | x8 | x8 | G,,2 z2 x4 | x8 | %175
 x4 z2 z F, | x8 | z4 z2 z z/ G,/ | F,4 z2 z z/ F,/ | G,3 z/ F,/ G,2 z2 | z2 z z/ F,/ G,2 z2 | %181
 z2 z z/ F,/ C,2 z2 | z2 z z/ F,,/ F,2 z z/ F,/ | B,,4 z4 | z z/ B,,<C,D,/ E,4- | E,4 D,4- | %186
 D,2 x6 | x8 | x8 | x8 | x8 | x8 | (F,4 E,4-) | E,3 z/ E,/ D,4 | E,4 z4 | x8 | x8 | x8 | x8 | x8 | %200
 x8 | x8 | x4 z2 z z/ F,/ | .G,2 .G,2 .E,2 .B,,2 | [B,,E,]8 |][M:8/4] z16 | z16 | x16 | x16 | x16 | %210
 x16 | x16 | x16 | G,2 F,2 G,2 A,2 B,2 B,,2 E,2 F,2 | G,2 F,2 E,2 D,2 E,2 C,2 F,2 E,2 | %215
 D,2 C,2 B,,2 C,2 D,2 E,2 F,4 | C,2 D,2 E,2 F,2 G,2 A,2 B,4- | B,4 A,4- A,4 G,2 E,2 | %218
 F,6 B,,2 E,2 F,2 G,2 =A,2 | F,4 z4 z8 | x16 | x16 | x16 | x16 | x16 | x16 | x8 B,8 | %227
 G,4 C4 B,4 x4 | x16 | x16 | x16 | E,6 F,2 G,6 A,2 | B,6 A,2 G,4 F,4 | C,8 D,2 C,2 D,2 E,2 | %234
 F,2 C,2 F,2 E,2 D,2 B,,2 E,4- | E,2 D,2 E,2 F,2 G,4 E,4 | B,8- B,8 | x16 | x16 | x16 | x16 || %241
[M:6/4] x12 | x12 | G,F,E,F,G,=A, x6 | x12 | B,2 F,E,F,G, G,2 E,2 F,2 | G,2 D,C,D,E, F,2 C,2 D,2 | %247
 E,4 D,2 C,2 x4 | x12 | x12 | B,6- B,2 =A,4 | B,2 z2 z2 z6 | z12 | z12 | z12 | %255
 z2 _A,_B,A,G, F,G,F,E,F,D, | G,A,G,F,G,F, =E,F,E,D,E,C, | F,6- F,4 F,2 | G,6- G,6 | =A,6- A,6 | %260
 B,6 z2 D,2 B,,2 | E,2 z2 z2 z2 =E,2 C,2 | F,2 D,2 G,2 E,2 F,4 | B,2 B,,=A,,B,,C, D,C,D,E,C,D, | %264
 E,D,E,F,E,F, G,F,G,A,G,A, | B,A,B,CB,A, G,A, B,2 G,2 | E,2 z2 C,2 G,2 z2 E,2 | x12 | x12 | x12 | %270
 F,G,F,E,F,E, _D,E,D,C,D,C, | G,6- G,2 F,4 | x12 | F,4 G,2 A,2 z2 F,2 | C2 z2 A,2 E,2 F,2 G,2 | %275
 C,2 z2 z2 z6 | z12 | z12 | z12 | z12 | z12 | z2 G,4 E,2 _A,4 | x12 | C4 B,2 A,4 G,2 | %284
 F,4 E,2 D,4 C,2 | =B,,2 G,,2 C,2 F,2 G,4 ||[M:12/8] x12 | x12 | x12 | C2 B, A,3- A,G,F, G,3- | %290
 G,F,E, F,E,F, B,,D,/C,/D,/B,,/ E,D,E, | =A,,C,/B,,/C,/A,,/ D,C,D, G,,3 z3 | z12 | z8 x4 | x12 | %295
 x12 | x12 | x12 | x8 z4 | x8 z4 | x12 | x12 | x12 | x12 | x12 | x12 | C, z z z3 z4 x2 | x8 z4 | %308
 x12 | x12 | F,A,/G,/A,/F,/ B,A,B, E,G,/F,/G,/E,/ A,G,A, | F,G,A, B,3- B,3 A,3- | %312
 A,3 G,/E,/F,/G,/A,/B,/ C3- C/_D/C/B,/A,/G,/ | A,/B,/A,/G,/F,/E,/ F,/A,/G,/F,/E,/D,/ E,3 z3 | %314
 x2 D/C/ x9 | x12 | x12 | x12 | x12 | x12 | x12 | x12 |] %322
V:6
 E,4 z2 z G, | F,4- F,>(A,G,>A,) | D,4 z2 z B,, | E,4- E,>B,,G,,>B,, | E,,4 z2 z z/ E,/ | %5
 D,4 z2 z z/ D,/ | C,4 z2 z z/ C,/ | B,,4 z2 z z/ B,,/ | =A,,4 z2 z z/ C,/ | F,,4 z2 z z/ =A,,/ | %10
 B,,3 z/ =A,,/ B,,3 z/ D,,/ | E,,3 z/ B,,/ C,3 z/ E,,/ | F,,3 z/ C,/ D,3 z/ F,,/ | %13
 G,,3 z/ D,/ E,3 z/ G,,/ | =A,,3 z/ F,/ D,3 z/ B,,/ | F,4 F,,4 | B,,4 z2 z B,, | %17
 =B,,4- B,,>D,C,>D, | G,,4 z2 z =B,, | C,4- C,>E,D,>E, | F,,4 z2 z z/ B,,/ | E,,4 z2 z z/ E,/ | %22
 A,,4 z2 z z/ =A,,/ | B,,4- B,,>(D,C,>E,) | D,4 z2 z z/ B,,/ | E,4 z2 z z/ B,,/ | %26
 G,4 z2 z z/ =A,,/ | B,,4 z2 z z/ _A,,/ | G,,4 z2 z z/ G,,/ | C,4 z2 z z/ D,/ | %30
 .E,2 .G,,2 .A,,2 .B,,2 | E,,8 | z8 | z4 .E,,2 z2 | z8 | z4 .E,,2 z2 | z8 | z4 .B,,2 z2 | z8 | %39
 z4 .B,,2 z2 | z8 | z8 | z8 | z8 | z8 | z8 | z8 | z8 | z8 | z8 | B,,4 z2 z B,, | C,4- C,>E,D,>E, | %52
 F,,4 z2 z F,, | B,,4- B,,>D,C,>E, | B,,4- B,,>D,C,>D, | E,4- E,>G,F,>A, | G,4- G,>F,G,>E, | %57
 A,4- A,>B,G,>A, | F,4 z2 z z/ F,/ | E,4 z2 z z/ E,/ | D,4 z2 z z/ D,/ | C,4 z2 z z/ C,/ | %62
 =B,,4 z2 z z/ D,/ | G,,4 z2 z z/ =B,,/ | C,3 z/ =B,,/ C,3 z/ E,,/ | F,,3 z/ C,/ D,3 z/ F,/ | %66
 G,3 z/ D,/ E,3 z/ G,,/ | A,,3 z/ E,/ F,3 z/ =A,,/ | =B,,3 z/ G,/ E,3 z/ C,/ | G,4 G,,4 | %70
 C,2 z2 z4 | z8 | z8 | z8 | z8 | z8 | z8 | z8 | z8 | z8 | z8 | z8 | z8 | z8 | z8 | z8 | z8 | z8 | %88
 z8 | z8 | z8 | z8 | z8 | z8 | z8 | z8 | z8 | z4 z2 z =E, | F,4- F,>A,G,>A, | B,,4 z2 z z/ E,/ | %100
 A,,4 z2 z z/ A,/ | _D,4 z2 z z/ =D,/ | E,4- E,>G,F,>A, | G,4 z2 z z/ E,/ | A,4 z2 z z/ _D,/ | %105
 C,4 z2 z z/ =D,/ | E,4 z2 z z/ _D,/ | C,4 z2 z z/ C,/ | F,,4 z2 z z/ G,,/ | A,,2 C,2 _D,2 E,2 | %110
 A,,8 | z8 | z4 .A,,2 z2 | z8 | z4 .A,,2 z2 | z8 | z4 .E,,2 z2 | z8 | z4 !wedge!.E,,2 z2 | z8 | %120
 z8 | z8 | z8 | z8 | z8 | z8 | z8 | z8 | z8 | E,,2 F,,2 G,,2 A,,2- | A,,2 G,,2 F,,2 B,,2 | %131
 E,,2 D,,2 C,,2 C,2 | F,,2 G,,2 C,,2 F,,2 | C,2 D,,2 E,,2 G,,2 | A,,2 A,4 G,2- | G,2 F,2 G,2 A,2- | %136
 A,2 G,2 F,2 B,,2 | E,2 G,,2 A,,2 C,2 | D,2 F,,2 G,,2 B,,2 | C,2 E,,2 F,,2 z2 | _A,,2 z2 G,,2 C,2 | %141
 F,,2 G,,2 C,,2 F,,2 | B,,2 z2 z4 | z8 | z/ C/B,/C/ A,/B,/G,/A,/ F,/G,/E,/F,/ D,/E,/C,/D,/ | %145
 =B,,/D,/B,,/D,/ C,/E,/C,/E,/ C,/F,/C,/F,/ B,,/G,/B,,/G,/ | C,2 z2 z4 | z8 | %148
 z/ B,/=A,/B,/ G,/A,/F,/G,/ E,/F,/D,/E,/ C,/D,/B,,/C,/ | %149
 =A,,/C,/A,,/C,/ B,,/D,/B,,/D,/ B,,/E,/B,,/E,/ A,,/F,/A,,/F,/ | B,,2 z2 z4 | z8 | %152
 z/ A,/G,/A,/ F,/G,/E,/F,/ _D,/E,/C,/D,/ B,,/C,/A,,/B,,/ | %153
 G,,/B,,/G,,/B,,/ A,,/C,/A,,/C,/ A,,/_D,/A,,/D,/ G,,/E,/G,,/E,/ | A,,4 B,,4 | C,4 D,4 | %156
 E,2 D,2 C,2 F,2 | B,,2 C,2 F,,2 B,,2 | E,,2 z2 z4 | z8 | z8 | z8 | z8 | z8 | z8 | z8 | z8 | z8 | %168
 z8 | z8 | z8 | z8 | z8 | z4 z2 z G,, | C,4- C,>(C,D,>E,) | D,4 z2 z B,, | E,4- E,>B,,G,,>B,, | %177
 E,,4 z2 z z/ E,/ | D,4 z2 z z/ D,/ | C,4 z2 z z/ C,/ | B,,4 z2 z z/ B,,/ | =A,,4 z2 z z/ C,/ | %182
 F,,4 z2 z z/ =A,,/ | B,,3 z/ =A,,/ B,,3 z/ D,,/ | E,,3 z/ B,,/ C,3 z/ E,,/ | %185
 F,,3 z/ C,/ D,3 z/ F,,/ | G,,3 z/ D,/ E,3 z/ G,,/ | =A,,3 z/ F,/ D,3 z/ B,,/ | F,4 F,,4 | %189
 B,,4 z2 z B,, | =B,,4- B,,>D,C,>D, | G,,4 z2 z =B,, | C,4- C,>E,D,>E, | F,,4 z2 z z/ B,,/ | %194
 E,,4 z2 z z/ E,/ | A,,4 z2 z z/ =A,,/ | B,,4- B,,>(D,C,>E,) | D,4 z2 z z/ B,,/ | %198
 E,4 z2 z z/ B,,/ | G,4 z2 z z/ =A,,/ | B,,4 z2 z z/ _A,,/ | G,,4 z2 z z/ G,,/ | C,4 z2 z z/ D,/ | %203
 .E,2 .G,,2 .A,,2 .B,,2 | !fermata!E,,8 |][M:8/4] z16 | z16 | z16 | z16 | z16 | z16 | z16 | z16 | %213
 z16 | z16 | z16 | z16 | z16 |!ff! B,,8 G,,4 C,4 | B,,4 E,8 D,4 | E,4 F,4 B,,4 C,4 | A,,8 B,,8 | %222
 C,2 B,2 =A,2 G,2 A,2 F,2 B,2 A,2 | G,4 C4 =A,4 F,4 | B,2 F,2 G,2 E,2 F,4 F,,4 | B,,4 z4 z8 | z16 | %227
 z16 | z16 | z16 | z16 | z16 | z16 | z16 | z16 | B,,8 G,,4 C,4 | B,,4 E,8 _D,4- | %237
 D,2 E,2 _D,2 C,2 D,2 B,,2 E,2 D,2 | C,2 B,,2 C,2 =D,2 E,2 F,2 G,2 E,2 | %239
 A,2 F,2 B,2 A,2 G,2 E,2 A,4- | A,4 G,2 E,2 B,4 B,,4 ||[M:6/4] E,,6 z6 | z12 | z12 | z12 | z12 | %246
 z12 | z12 | z12 | z12 | z12 | z12 | z12 | z12 | z12 | z12 | z12 | z12 | z12 | z12 | z12 | z12 | %262
 z12 | z12 | z12 | z12 | z12 | z12 | z12 | z12 | z12 | z12 | z12 | z12 | z12 | z12 | z12 | z12 | %278
 z12 | z12 | z12 | z12 | z12 | z12 | z12 | z12 ||[M:12/8] z12 | z12 | z12 | z12 | z12 | z12 | z12 | %293
 z12 | z12 | z12 | z3 G,F,G, C,E,/D,/E,/C,/ F,E,F, | B,,D,/C,/D,/B,,/ E,6 _D,3- | D,3 C,3 F,6 | %299
 E,3 A,6 G,3 | A,3 F,3 _D,6 | C,3- C,2 =B,, C,3 C,,3 | F,,3 z3 z4 x2 | z12 | z12 | z3 C,6 =B,,3 | %306
 E,6 C,3 G,3- | G,3 ^F,3 G,3 z3 | z4 x2 z3 CB,C | F,A,/G,/A,/F,/ B,A,B, E,G,/F,/G,/E,/ A,G,A, | %310
 D,F,/E,/F,/D,/ G,F,G, C,E,/D,/E,/C,/ F,E,F, | B,,3 z3 z4 x2 | z3 E,6 C,3 | F,6 E,3 A,3- | %314
 A,3 G,3 C6 | B,3 z3 z4 x2 | z12 | z12 | z3 A,,6 G,,3 | C,6 B,,3 E,3- | E,3 D,3 E,2 F, G,2 A, | %321
 B,3 B,,3 !fermata!E,,6 |] %322
V:7
 x8 | x8 | x8 | x8 | x8 | x8 | x8 | x8 | x8 | x8 | x8 | x8 | x8 | x8 | x8 | c8 | x8 | x8 | x8 | %19
 x8 | x8 | x8 | x8 | x8 | x8 | x8 | x8 | x8 | x8 | x8 | x8 | x8 | x8 | x8 | x8 | x8 | x8 | x8 | %38
 x8 | x8 | x8 | x8 | x8 | x8 | x8 | x8 | x8 | x8 | x8 | x8 | x8 | E8- | E4 z4 | x8 | x8 | x8 | x8 | %57
 x8 | x8 | x8 | x8 | x8 | x8 | x8 | x8 | x8 | x8 | x8 | x8 | x8 | x8 | x8 | x8 | x8 | x8 | x8 | %76
 x8 | x8 | x8 | x8 | x8 | x8 | x8 | x8 | x8 | x8 | x8 | x8 | x8 | x8 | x8 | x8 | x8 | x8 | x8 | %95
 x8 | x8 | B/c/B/A/ G/F/=E/D/ .C3 x | x8 | x8 | x8 | x8 | x8 | x8 | x8 | x8 | x8 | x8 | x8 | x8 | %110
 x8 | x8 | x8 | x8 | x8 | x8 | x8 | x8 | x8 | x8 | x8 | x8 | x8 | x8 | x8 | x8 | x8 | x8 | %128
 E4- E3/2 x5/2 | x E2 E- E/D/x/ x5/2 | x8 | x8 | x8 | x8 | x8 | x8 | x8 | x8 | x8 | x8 | x8 | x8 | %142
 x8 | x8 | x8 | x8 | x8 | x8 | x8 | x8 | F/G/F/=E/ F/G/F/E/ F/_E/_D/C/ x2 | x8 | x8 | x8 | x8 | %155
 x8 | x8 | x8 | x8 | x8 | x8 | x8 | x8 | x8 | x8 | x8 | x8 | x8 | x8 | x8 | x8 | x8 | x8 | %173
 x4 z2 z F | (F4 E4) | x8 | x8 | x8 | x8 | x8 | x8 | x8 | x8 | x8 | x8 | x8 | x8 | x8 | c8 | x8 | %190
 x8 | x8 | x8 | x8 | x8 | x8 | x8 | x8 | x8 | x8 | x8 | x8 | x8 | x8 | x8 |][M:8/4] x16 | x16 | %207
 x16 | x16 | x16 | x16 | x16 | x16 | x16 | x16 | x16 | x16 | x16 | x16 | x16 | x16 | x16 | x16 | %223
 x16 | x16 | x16 | x16 | x12 E4- | E4 D4 E4 F4- | F4 E4- E2 E2 D2 C2 | x16 | x16 | x16 | x16 | %234
 x16 | x16 | x16 | x16 | x16 | x16 | x8 F8 ||[M:6/4] x12 | x12 | x12 | x12 | x12 | x12 | x12 | %248
 x12 | x12 | x12 | x12 | x12 | x12 | x12 | x12 | x12 | x12 | x12 | x12 | x12 | x12 | x12 | x12 | %264
 x12 | x12 | x12 | x12 | x12 | x12 | x12 | x12 | x12 | x12 | x12 | x12 | x12 | x12 | x12 | x12 | %280
 x12 | x12 | x12 | x12 | x12 | x12 ||[M:12/8] x12 | x12 | x12 | x12 | x12 | x12 | x12 | x9 z3 | %294
 x6 z3 x3 | x12 | x12 | x12 | x12 | x12 | x12 | x12 | x12 | x12 | x12 | x12 | x12 | x12 | x12 | %309
 x12 | x12 | x12 | x12 | x12 | z/ G/F/E/x/ x13/2 z/ G/F/E/D/C/ | D z z x9 | x12 | x12 | x12 | x12 | %320
 x12 | x12 |] %322
V:8
 x8 | x8 | x8 | x8 | x8 | x8 | x8 | x8 | x8 | x8 | x8 | x8 | x8 | x8 | x8 | x8 | x8 | x8 | x8 | %19
 x8 | x8 | x8 | x8 | x8 | x8 | x8 | x8 | x8 | x8 | x8 | x8 | x8 | x8 | x8 | x8 | x8 | x8 | x8 | %38
 x8 | x8 | x8 | x8 | x8 | x8 | x8 | x8 | x8 | x8 | x8 | x6 B,>=A, | x8 | x8 | x8 | x8 | x8 | x8 | %56
 x8 | x8 | x8 | x8 | x8 | x8 | x8 | x8 | x8 | x8 | x8 | x8 | x8 | x8 | x8 | x8 | x8 | x8 | x8 | %75
 x8 | x8 | x8 | x8 | x8 | x8 | x8 | x8 | x8 | x8 | x8 | x8 | x8 | x8 | x8 | x8 | x8 | x8 | x8 | %94
 x8 | x8 | x8 | x8 | x8 | x8 | x8 | x8 | x8 | x8 | x8 | x8 | x8 | x8 | x8 | x8 | x8 | x8 | x8 | %113
 x8 | x8 | x8 | x8 | x8 | x8 | x8 | x8 | x8 | x8 | x8 | x8 | x8 | x8 | x8 | x8 | x8 | x8 | x8 | %132
 x8 | x8 | x8 | x8 | x8 | x8 | x8 | x7 F,- | x8 | x8 | x8 | x8 | x8 | x8 | x8 | x8 | x8 | x8 | x8 | %151
 x8 | x8 | x8 | x8 | x8 | x8 | x8 | x8 | x8 | x8 | x8 | x8 | x8 | x8 | x8 | x8 | x8 | x8 | x8 | %170
 x8 | x8 | x8 | x8 | x8 | x8 | x8 | x8 | x8 | x8 | x8 | x8 | x8 | x8 | x8 | x8 | x8 | x8 | x8 | %189
 x8 | x8 | x8 | x8 | x8 | x8 | x8 | x8 | x8 | x8 | x8 | x8 | x8 | x8 | x8 | x8 |][M:8/4] x16 | %206
 x16 | x16 | x16 | x16 | x16 | x16 | x16 | x16 | x16 | x16 | x16 | x16 | x16 | x16 | x16 | x16 | %222
 x16 | x16 | x16 | x16 | x16 | x16 | x16 | x16 | x16 | x16 | x16 | x16 | x16 | x16 | x16 | x16 | %238
 x16 | x16 | x16 ||[M:6/4] x12 | x12 | x12 | x12 | x12 | x12 | x12 | x12 | x12 | x12 | x12 | x12 | %253
 x12 | x12 | x12 | x12 | x12 | x12 | x12 | x12 | x12 | x12 | x12 | x12 | x12 | x12 | x12 | x12 | %269
 x12 | x12 | B,,A,,B,,_D,C,B,, A,,2 _D,4 | C,2 F,4 F,2 =E,4 | x12 | x12 | x12 | x12 | x12 | x12 | %279
 x12 | x12 | x12 | x12 | x12 | x12 | x12 ||[M:12/8] x12 | x12 | x12 | x12 | x12 | x12 | x12 | x12 | %294
 x12 | x12 | x12 | x12 | x12 | x12 | x12 | x12 | x12 | x12 | x12 | x12 | x12 | x12 | x12 | x12 | %310
 x12 | x12 | x12 | x12 | x12 | x12 | x12 | x12 | x12 | x12 | x12 | x12 |] %322
V:9
 E,4 z2 z G, | F,4- F,3/2 (A,/ G,3/2 A,/) | D,4 z2 z B,, | E,4- E,3/2 B,,/ G,,3/2 B,,/ | %4
 E,,4 z2 z z/ E,/ | D,4 z2 z z/ D,/ | C,4 z2 z z/ C,/ | B,,4 z2 z z/ B,,/ | =A,,4 z2 z z/ C,/ | %9
 F,,4 z2 z z/ =A,,/ | B,,3 z/ =A,,/ B,,3 z/ D,,/ | E,,3 z/ B,,/ C,3 z/ E,,/ | %12
 F,,3 z/ C,/ D,3 z/ F,,/ | G,,3 z/ D,/ E,3 z/ G,,/ | =A,,3 z/ F,/ D,3 z/ B,,/ | F,4 F,,4 | %16
 B,,4 z2 z B,, | =B,,4- B,,3/2 D,/ C,3/2 D,/ | G,,4 z2 z =B,, | C,4- C,>E,D,>E, | %20
 F,,4 z2 z z/ B,,/ | E,,4 z2 z z/ E,/ | A,,4 z2 z z/ =A,,/ | B,,4- B,,3/2 (D,/ C,3/2 E,/) | %24
 D,4 z2 z z/ B,,/ | E,4 z2 z z/ B,,/ | G,4 z2 z z/ =A,,/ | B,,4 z2 z z/ _A,,/ | G,,4 z2 z z/ G,,/ | %29
 C,4 z2 z z/ D,/ | .E,2 .G,,2 .A,,2 .B,,2 | E,,8 | z8 | z4 .E,,2 z2 | z8 | z4!p! .E,,2 z2 | z8 | %37
 z4!f! .B,,2 z2 | z8 | z4!p! .B,,2 z2 | z8 | z8 | z8 | z8 | z8 | z8 | z8 | z8 | z8 | z8 | %50
!f! B,,4 z2 z B,, | C,4- C,>E,D,>!fff!E, | F,,4 z2 z F,, | B,,4- B,,3/2 D,/ C,3/2 E,/ | %54
 B,,4- B,,>D,C,>D, | E,4- E,>G,F,>A, | G,4- G,>F,G,>E, | A,4- A,3/2 B,/ G,3/2 A,/ | %58
 F,4 z2 z z/ F,/ | E,4 z2 z z/ E,/ | D,4 z2 z z/ D,/ | C,4 z2 z z/ C,/ | =B,,4 z2 z z/ D,/ | %63
 G,,4 z2 z z/ =B,,/ | C,3 z/ =B,,/ C,3 z/ E,,/ | F,,3 z/ C,/ D,3 z/ F,/ | G,3 z/ D,/ E,3 z/ G,,/ | %67
 A,,3 z/ E,/ F,3 z/ =A,,/ | =B,,3 z/ G,/ E,3 z/ C,/ | G,4 G,,4 | C,2 z2 z4 | z8 | z8 | z8 | z8 | %75
 z8 | z8 | z8 | z8 | z8 | z8 | z8 | z8 | z8 | z8 | z8 | z8 | z8 | z8 | z8 | z8 | z8 | z8 | z8 | %94
 z8 | z8 | z8 | z4 z2 z =E, | F,4- F,3/2 A,/ G,3/2 A,/ | B,,4 z2 z z/ E,/ | A,,4 z2 z z/ A,/ | %101
 _D,4 z2 z z/ =D,/ | E,4- E,3/2 G,/ F,3/2 A,/ | G,4 z2 z z/ E,/ | A,4 z2 z z/ _D,/ | %105
 C,4 z2 z z/ =D,/ | E,4 z2 z z/ _D,/ | C,4 z2 z z/ C,/ | F,,4 z2 z z/ G,,/ | A,,2 C,2 _D,2 E,2 | %110
 A,,8 | z8 | z4 .A,,2 z2 | z8 | z4!p! .A,,2 z2 | z8 | z4!f! .E,,2 z2 | z8 | z4!p! .E,,2 z2 | z8 | %120
 z8 | z8 | z8 | z8 | z8 | z8 | z8 | z8 | z8 |!fff! E,,2 F,,2 G,,2 A,,2- | A,,2 G,,2 F,,2 B,,2 | %131
 E,,2 D,,2 C,,2 C,2 | F,,2 G,,2 C,,2 F,,2 | C,2 D,,2 E,,2 G,,2 | A,,2 A,4 G,2- | G,2 F,2 G,2 A,2- | %136
 A,2 G,2 F,2 B,,2 | E,2 G,,2 A,,2 C,2 | D,2 F,,2 G,,2 B,,2 | C,2 E,,2 F,,2 z2 | _A,,2 z2 G,,2 C,2 | %141
 F,,2 G,,2 C,,2 F,,2 | B,,2 z2 z4 | z8 | %144
 z/ C/ B,/ C/ A,/ B,/ G,/ A,/ F,/ G,/ E,/ F,/ D,/ E,/ C,/ D,/ | %145
 =B,,/ D,/ B,,/ D,/ C,/ E,/ C,/ E,/ C,/ F,/ C,/ F,/ B,,/ G,/ B,,/ G,/ | C,2 z2 z4 | z8 | %148
 z/ B,/ =A,/ B,/ G,/ A,/ F,/ G,/ E,/ F,/ D,/ E,/ C,/ D,/ B,,/ C,/ | %149
 =A,,/ C,/ A,,/ C,/ B,,/ D,/ B,,/ D,/ B,,/ E,/ B,,/ E,/ A,,/ F,/ A,,/ F,/ | B,,2 z2 z4 | z8 | %152
 z/ A,/ G,/ A,/ F,/ G,/ E,/ F,/ _D,/E,/C,/D,/ B,,/ C,/ A,,/ B,,/ | %153
 G,,/ B,,/ G,,/ B,,/ A,,/ C,/ A,,/ C,/ A,,/ _D,/ A,,/ D,/ G,,/ E,/ G,,/ E,/ | A,,4 B,,4 | C,4 D,4 | %156
 E,2 D,2 C,2 F,2 | B,,2 C,2 F,,2 B,,2 | E,,2 z2 z4 | z8 | z8 | z8 | z8 | z8 | z8 | z8 | z8 | z8 | %168
 z8 | z8 | z8 | z8 | z8 | z4 z2 z G,, | C,4- C,>(C,D,>E,) | D,4 z2 z B,, | %176
 E,4- E,3/2 B,,/ G,,3/2 B,,/ | E,,4 z2 z z/ E,/ | D,4 z2 z z/ D,/ | C,4 z2 z z/ C,/ | %180
 B,,4 z2 z z/ B,,/ | =A,,4 z2 z z/ C,/ | F,,4 z2 z z/ =A,,/ | B,,3 z/ =A,,/ B,,3 z/ D,,/ | %184
 E,,3 z/ B,,/ C,3 z/ E,,/ | F,,3 z/ C,/ D,3 z/ F,,/ | G,,3 z/ D,/ E,3 z/ G,,/ | %187
 =A,,3 z/ F,/ D,3 z/ B,,/ | F,4 F,,4 | B,,4 z2 z B,, | =B,,4- B,,3/2 D,/ C,3/2 D,/ | %191
 G,,4 z2 z =B,, | C,4- C,>E,D,>E, | F,,4 z2 z z/ B,,/ | E,,4 z2 z z/ E,/ | A,,4 z2 z z/ =A,,/ | %196
 B,,4- B,,3/2 (D,/ C,3/2 E,/) | D,4 z2 z z/ B,,/ | E,4 z2 z z/ B,,/ | G,4 z2 z z/ =A,,/ | %200
 B,,4 z2 z z/ _A,,/ | G,,4 z2 z z/ G,,/ | C,4 z2 z z/ D,/ | .E,2 .G,,2 .A,,2 .B,,2 | %204
 !fermata!E,,8 |][M:8/4] z16 | z16 | z16 | z16 | z16 | z16 | z16 | z16 | z16 | z16 | z16 | z16 | %217
 z16 |!fff! B,,8 G,,4 C,4 | B,,4 E,8 D,4 | E,4 F,4 B,,4 C,4 | A,,8 B,,8 | %222
 C,2 B,2 =A,2 G,2 A,2 F,2 B,2 A,2 | G,4 C4 =A,4 F,4 | B,2 F,2 G,2 E,2 F,4 F,,4 | B,,4 z4 z8 | z16 | %227
 z16 | z16 | z16 | z16 | z16 | z16 | z16 | z16 | B,,8 G,,4 C,4 | B,,4 E,8 _D,4- | %237
 D,2 E,2 _D,2 C,2 D,2 B,,2 E,2 D,2 | C,2 B,,2 C,2 =D,2 E,2 F,2 G,2 E,2 | %239
 A,2 F,2 B,2 A,2 G,2 E,2 A,4- | A,4 G,2 E,2 B,4 B,,4 ||[M:6/4] E,,6 z6 | z12 | z12 | z12 | z12 | %246
 z12 | z12 | z12 | z12 | z12 | z12 | z12 | z12 | z12 | z12 | z12 | z12 | z12 | z12 | z12 | z12 | %262
 z12 | z12 | z12 | z12 | z12 | z12 | z12 | z12 | z12 | z12 | z12 | z12 | z12 | z12 | z12 | z12 | %278
 z12 | z12 | z12 | z12 | z12 | z12 | z12 | z12 ||[M:12/8] z12 | z12 | z12 | z12 | z12 | z12 | z12 | %293
 z12 | z12 | z12 | z3 G, F, G, C, E,/ D,/ E,/ C,/ F, E, F, | B,, D,/ C,/ D,/ B,,/ E,6 _D,3- | %298
 D,3 C,3 F,6 | E,3 A,6 G,3 | A,3 F,3 _D,6 | C,3- C,2 =B,, C,3 C,,3 | F,,3 z3 z4 x2 | z12 | z12 | %305
 z3 C,6 =B,,3 | E,6 C,3 G,3- | G,3 ^F,3 G,3 z3 | z4 x2 z3 C B, C | %309
 F, A,/ G,/ A,/ F,/ B, A, B, E, G,/ F,/ G,/ E,/ A, G, A, | %310
 D, F,/ E,/ F,/ D,/ G, F, G, C, E,/ D,/ E,/ C,/ F, E, F, | B,,3 z3 z4 x2 | z3 E,6 C,3 | %313
 F,6 E,3 A,3- | A,3 G,3 C6 | B,3 z3 z4 x2 | z12 | z12 | z3 A,,6 G,,3 | C,6 B,,3 E,3- | %320
 E,3 D,3 E,2 F, G,2 A, | B,3 B,,3 E,,6 |] %322
V:10
 z8 | z8 | z8 | z8 | z8 | z8 | z8 | z8 | z8 | z8 | z8 | z8 | z8 | z8 | z8 | z8 | z8 | z8 | z8 | %19
 z8 | z8 | z8 | z8 | z8 | z8 | z8 | z8 | z8 | z8 | z8 | z8 | z8 | z8 | z8 | z8 | z8 | z8 | z8 | %38
 z8 | z8 | z8 | z8 | z8 | z8 | z8 | z8 | z8 | z8 | z8 | z8 | z8 | z8 | z8 | z8 | z8 | z8 | z8 | %57
 z8 | z8 | z8 | z8 | z8 | z8 | z8 | z8 | z8 | z8 | z8 | z8 | z8 | z8 | z8 | z8 | z8 | z8 | z8 | %76
 z8 | z8 | z8 | z8 | z8 | z8 | z8 | z8 | z8 | z8 | z8 | z8 | z8 | z8 | z8 | z8 | z8 | z8 | z8 | %95
 z8 | z8 | z8 | z8 | z8 | z8 | z8 | z8 | z8 | z8 | z8 | z8 | z8 | z8 | z8 | z8 | z8 | z8 | z8 | %114
 z8 | z8 | z8 | z8 | z8 | z8 | z8 | z8 | z8 | z8 | z8 | z8 | z8 | z8 | z8 | z8 | z8 | z8 | z8 | %133
 z8 | z8 | z8 | z8 | z8 | z8 | z8 | z8 | z8 | z8 | z8 | z8 | z8 | z8 | z8 | z8 | z8 | z8 | z8 | %152
 z8 | z8 | z8 | z8 | z8 | z8 | z8 | z8 | z8 | z8 | z8 | z8 | z8 | z8 | z8 | z8 | z8 | z8 | z8 | %171
 z8 | z8 | z8 | z8 | z8 | z8 | z8 | z8 | z8 | z8 | z8 | z8 | z8 | z8 | z8 | z8 | z8 | z8 | z8 | %190
 z8 | z8 | z8 | z8 | z8 | z8 | z8 | z8 | z8 | z8 | z8 | z8 | z8 | z8 | z8 |][M:8/4] z16 | z16 | %207
 z16 | z16 | z16 | z16 | z16 | z16 | z16 | z16 | z16 | z16 | z16 | z16 | z16 | z16 | z16 | z16 | %223
 z16 | z16 | z16 | z16 | z16 | z16 | z16 | z16 | z16 | z16 | z16 | z16 | z16 | z16 | z16 | z16 | %239
 z16 | z16 ||[M:6/4] z12 | z12 | z12 | z12 | z12 | z12 | z12 | z12 | z12 | z12 | z12 | z12 | z12 | %254
 z12 | z12 | z12 | z12 | z12 | z12 | z12 | z12 | z12 | z12 | z12 | z12 | z12 | z12 | z12 | z12 | %270
 z12 | z12 | z12 | z12 | z12 | z12 | z12 | z12 | z12 | z12 | z12 | z12 | z12 | z12 | z12 | z12 || %286
[M:12/8] z3 c B c F A/ G/ A/ F/ B A B | E G/ F/ G/ E/ z z8 | z12 | z12 | z12 | z12 | z12 | z12 | %294
 z12 | z12 | z12 | z12 | z12 | z12 | z12 | z12 | z12 | z12 | z12 | z12 | z12 | z12 | z12 | z12 | %310
 z12 | z12 | z12 | z12 | z12 | z12 | z12 | z12 | z3!fff! A,,6 G,,3 | C,6 B,,3 E,3- | %320
 E,3 D,3 E,2 F, G,2 A, | B,3 B,,3 E,,6 |] %322

